src/components/content/testimonials/logo-u.svg

<svg viewBox="0 0 568 604" fill="none" xmlns="http://www.w3.org/2000/svg">
<path d="M196.328 601.851C302.039 601.851 388.814 515.337 389.767 408.984V193.396C389.767 176.645 383.129 160.58 371.312 148.735C359.496 136.89 343.469 130.236 326.758 130.236C291.553 130.236 262.924 158.561 262.924 193.396V407.17C262.924 444.419 233.035 474.801 196.296 474.801C178.397 474.775 161.241 467.63 148.594 454.934C135.947 442.239 128.843 425.031 128.843 407.09V326.617C128.843 291.813 100.198 263.456 65.0095 263.456C48.2984 263.456 32.2717 270.11 20.4551 281.955C8.63849 293.8 2 309.865 2 326.617V408.79C2.96938 515.337 90.068 601.851 196.328 601.851Z" stroke="white" stroke-opacity="0.1" stroke-width="3" stroke-miterlimit="10"/>
<path d="M65.1063 256.735C99.9501 256.735 128.197 228.421 128.197 193.493C128.197 158.566 99.9501 130.252 65.1063 130.252C30.2625 130.252 2.01599 158.566 2.01599 193.493C2.01599 228.421 30.2625 256.735 65.1063 256.735Z" stroke="white" stroke-opacity="0.1" stroke-width="3" stroke-miterlimit="10"/>
<path d="M502.99 601.429C490.36 601.515 477.992 597.818 467.471 590.812C456.95 583.806 448.756 573.81 443.94 562.106C439.123 550.401 437.903 537.522 440.436 525.118C442.969 512.714 449.139 501.351 458.157 492.486C470.091 480.766 486.156 474.241 502.862 474.328C519.568 474.415 535.565 481.107 547.377 492.949C559.19 504.792 565.862 520.829 565.946 537.575C566.03 554.321 559.517 570.424 547.824 582.384C535.91 594.322 519.834 601.151 502.99 601.429Z" stroke="white" stroke-opacity="0.1" stroke-width="3" stroke-miterlimit="10"/>
<path d="M502.99 467.221C467.786 467.221 439.157 438.912 439.157 404.061V65.9738C439.07 57.5476 440.663 49.1889 443.84 41.3875C447.018 33.5861 451.717 26.4988 457.662 20.5411C463.607 14.5833 470.678 9.8749 478.462 6.69174C486.245 3.50859 494.584 1.91471 502.99 2.00352C537.726 2.00352 566 30.7173 566 65.99V404.093C565.991 420.839 559.349 436.896 547.533 448.733C535.718 460.571 519.696 467.221 502.99 467.221Z" stroke="white" stroke-opacity="0.1" stroke-width="3" stroke-miterlimit="10"/>
</svg>

<svg xmlns="http://www.w3.org/2000/svg" fill="none" viewBox="0 0 568 604">
  <path stroke="#fff" stroke-miterlimit="10" stroke-opacity=".1" stroke-width="3"
        d="M196.328 601.851c105.711 0 192.486-86.514 193.439-192.867V193.396a63.235 63.235 0 0 0-18.455-44.661 62.93 62.93 0 0 0-44.554-18.499c-35.205 0-63.834 28.325-63.834 63.16V407.17c0 37.249-29.889 67.631-66.628 67.631a67.467 67.467 0 0 1-47.702-19.867 67.792 67.792 0 0 1-19.751-47.844v-80.473c0-34.804-28.645-63.161-63.833-63.161a62.933 62.933 0 0 0-44.555 18.499A63.238 63.238 0 0 0 2 326.617v82.173c.97 106.547 88.068 193.061 194.328 193.061Z"/>
  <path stroke="#fff" stroke-miterlimit="10" stroke-opacity=".1" stroke-width="3"
        d="M65.106 256.735c34.844 0 63.091-28.314 63.091-63.242 0-34.927-28.247-63.241-63.09-63.241-34.844 0-63.091 28.314-63.091 63.241 0 34.928 28.246 63.242 63.09 63.242ZM502.99 601.429a63.303 63.303 0 0 1-35.519-10.617 63.527 63.527 0 0 1-23.531-28.706 63.706 63.706 0 0 1-3.504-36.988 63.6 63.6 0 0 1 17.721-32.632 63.33 63.33 0 0 1 44.705-18.158 63.34 63.34 0 0 1 44.515 18.621 63.643 63.643 0 0 1 18.569 44.626 63.643 63.643 0 0 1-18.122 44.809 64.852 64.852 0 0 1-44.834 19.045Zm0-134.208c-35.204 0-63.833-28.309-63.833-63.16V65.974a63.455 63.455 0 0 1 4.683-24.587 63.343 63.343 0 0 1 13.822-20.846 63.155 63.155 0 0 1 20.8-13.85 63.033 63.033 0 0 1 24.528-4.687c34.736 0 63.01 28.713 63.01 63.986v338.103a63.235 63.235 0 0 1-18.467 44.64 62.931 62.931 0 0 1-44.543 18.488Z"/>
</svg>
